X:1767
T:Edinburgh Jigg
O:england
S:Gatherer's Musical Museum
M:6/8
L:1/8
K:G
B|D2E G2A|Bdg dBG|gag efg|dBG A2B|D2E G2A|
ege dBG|g2e dBG|AGG G2::d|gfg b2g|fef a2f|e^de gdB|
Bee e2f|gfe dcB|ABG FED|GBd gdc|BGG G2:|


